T: John O'Dwyer Of The Glen
M: 3/4
L: 1/8
K: Bmix
~ | G4 FG | A4 A2 | A6- |[1 A4 :|[2 A6 ||A4 eA | e4 d2 | e2 f4- | f4 g2 | ~~ | A,4 G,A, | B,4 B,2 | B,6- |[1 B,4 :|[2 B,6 ||B,4 DB, | D4 E2 | F2 G4- | G4 A2 | ~
